;Header Start

;FLAVOR:Marlin
;TIME:6666
;Filament used: 0m
;Layer height: 0.2


;header_type: 3dp
;thumbnail: data:image/png;base64,iVBORw0KGgoAAAANSUhEUgAAASwAAACWCAYAAABkW7XSAAAQR0lEQVR4Xu2du5LURhSGtRgy7wKOuTmiMNibugATuYqAggeg8BvAE5jQPAEkjtkqMgfGdkKGjSHFBUsRcdldMmPAGbbB9Qt66NFI6m5Na0Y9/alqanZGrVbrP0ffnD460i69fv36bcGCAiiAAgkosASwErASQ0QBFCgVAFg4AgqgQDIKAKxkTMVAUQAFABY+gAIokIwCACsZUzFQFEABgIUPoAAKJKMAwErGVAwUBVAAYOEDKIACySgAsJIxFQNFARQAWPgACqBAMgoArGRMxUBRAAUAFj6AAiiQjAIAKxlTMVAUQAGAhQ+gAAokowDASsZUDBQFUABg4QMogALJKACwkjEVA0UBFABY+AAKoEAyCgCsZEzFQFEABQAWPoACKJCMAgArGVMxUBRAAYCFD6AACiSjAMBKxlQMFAVQAGDhAyiAAskoALCSMRUDRQEUAFj4AAqgQDIKAKxkTMVAUQAFABY+gAIokIwCACsZUzFQFEABgIUPoAAKJKMAwErGVAwUBVAAYOEDKIACySgAsJIxFQNFARQAWPgACqBAMgoArGRMxUBRAAUAFj6AAiiQjAIAKxlTMVAUQAGAhQ+gAAokowDASsZUDBQFUABg4QMogALJKACwkjEVA0UBFABY+AAKoEAyCgCsZEzFQFEABQAWPjChwJMnT5yq+LRp62T//v2t+3Ctdw6QBgupAMBKyKwGEub96dOno9HbAGn6W43tbfR5WvDMWr46kO3bt280DHt9ta0+17UFjrO2Yvf9Aazu2nXasgoTAxB93wSkPqGye/fu0XHs2rWrWFpaGn2219kH2/R9qCB//fXX2Cb257dv3xYvXrwYra+2Dd2XT3sbXAKbPlcBaIBXXefTP22mVwBgTa/hWJQjuBgI3bx5s1xnvusLPAKNlp07dxb6e9u2beW7+d68q80nn3xSvpoWAUvbty021LrKJyC1Lf/991/jasHrzZs3hYGYAZt51/dm3cuXL8fA13W8bduZyM2G2FdffVVucuLEiT52mW2fACvQ9CYSEpQEpL5hJAhpsX/Z9d1HH300BiX7MLZv394ZSCkASwfXBjStqwLRwOzPP/8sDMT0rld1mhzoEl7NDdQMwAQ0ojQv6cYaAawGzerA9Ouvv4YrHLDFysrKCEx79uwp9u7dW0ZDdRGPoNQU6QhmTetcQHKt1+HMO8ISjBRhNS11wDJt//nnn4nN1J9A9urVq2JjY6N8v3fvXoDlpmtqw0wgIypr1hNgvddGgBKQTNTUN5yMSQQpwenQoUMloKrRkeBTB6ym79UvwJqMsKSLwPTvv//WAqv6vaCnqGx9fb148OBBCbFZLoLYuXPnyl1+++23s9z1oPeVPbAEqkuXLhVra2szN9TBgweLr7/+egQpRS5VYAlWAlB1AVjNEVYdlLoAy0RxgtcPP/xQPHv2bOY+YnYoeCnyMhCb20DmvONsgaVISqCaVSRVZ2eAVe/9rimfa30MYKkPkwcTsG7cuFE8fPhwzqdrUea9vv/++2ynjdkC6+TJk3OFlfH85eXl4rPPPiu+/PLL8qsdO3aMnRRNEVbT94swJXQBybU+FFiKpKpJfPWhhPzm5mY5Ldza2po7rMwABC1NU3NcsgTWH3/8UQhYcsghLcplmauBymfp1QVY2qapNMGVVHetl17TJt1dJQ0uILnWhwJLsDJlEEq6C1LKX+l9iIuuEgtYdrnKEMfZx5iyBJac8cqVK2WENc8poY9BlZTXL6opbzCFjAcOHKjNbalPgDWZWJcusrspa9BnUxc3q9IGH3u3tZEPfPHFF4WuJJ4/fx5gTStoStt/99135XDlrLqE/fjx4+RuU6kWjJrPioBUjW4+23+bKWOTrVKIsOyiUR2HoiO7Kv758+ejz/p+FsWjffm+saF+qI4fPz764bp48WJfuxx0v1lGWLLI5cuXR1NCUwYg59ZLv7wpAszX06q31thTC60zwGvrr61avm07waRpsW+/qbazq9h9jzPFdjagVldXC0XSWjQNNnk2RVoXLlxI8fCmHnO2wLp69eooomqqWzIAU15Dy6NHj0qg2b/mU1uADrJVwNw+pR8JgclM/+sEsYGlaOubb77JUrdsgfXjjz8WSr5racv5aH3drS6CliICRWLALMtzx3nQ9r2cBkrmu08//XRi+6aLBdUIS3msM2fOOPe/iA2yBZbqsMzNyS5gtVWO1zmFYKbK6Oo0xr4pV9EaS5oKmCm14GP+1rv9vaKlkKt4dgRVp4rydqaQVQWkud6+ky2w7t69W1y/fr30DeVs6qrJjeOEAqspKqtzRJO3MYljO49TTSbbbdM81Ycz6moez4aNRlkFkP3ZdRQu+LimfC5gnT59ulB+K8clW2Apsa48lg+wXBFYneN0gVxdP65HvVQBZ/poglsI9FzPoHKtrzse32dpudrZ6+0ox96nT5vqGNtuqvYFRB/Asm/oVv4q14cOZgssOZ8pbXBFWEMGlu9JVG03bfFn1/3G2s5VfNp1P/MClj3lqxu7Daxca7DK4OL169ftT1LravkEtjPAck3hXEBrioxc0ZGPRDH6qNsPwKpXf6jAMgn5nEsasgeWXYvleuhdW44LYPmgN26bIUdYrmjJFUFV11OD9UGRrCMsn1osnxxXn8BSJNRHNNRHn3GR1N5bH8BSnzH67RNYOddgZR9hTVuL1XZKdZlGNk3d+oBLH30CrHcKtD3xtEkjarD8vCfrCCukFqttytgEmtBpJMDyc1q1ihEJ1U29YvQbG1jUYDElLBXosxaLCMsfPl1axgDLUIDlKoOwgZVzDVb2U8KQWqwudVWhURkRlj+6hgystuld3RG6gEUNFhHWSIE+a7EAlj+AQlvmCqyca7Cyj7AkgG8t1ryKR7lKWI+yoQLLFS3VHY3rqiI1WERYIwX6rMXqMo2sOjTAmh2whlg0Sg3WuP2zvkooKezSBtf/8wu96hcDWBpjH9XulDVMgnBewGq7qshzsADWmAK+tVhdrvp1mUbWxRMAa1KVPqaEQwdWzs/BMh6QfYTVZy0WwApNpfu3HyqwXPmouiNsu6pIDRYR1pgCdi2WCzChV/1c/fmenkRY6URYfQIr58fKEGG9V6DPWqwu00imhH4YH2qEFVrl7rqqSA0WEdbEGeFbixWaRAdYfvDp0ipHYOVeg0Ud1vszpa9arCEDqzT+0lIXVsx9mz5gpYOKkXSPHWFRg0WENXHC+dZidclJhea96mhALda4Kn0AK9ajZUJvy2nLeVGDNXk2ZH+VUJL0WYsFsOIHZDkCK/fnYJF0t86jPoEVmvciwnIDbqjAciXQ647Mt2g053/tZetGhFV5zEzbtK9LTgpguQEU2iIXYFGDxZSw9tzosxYLYIXiyN1+kYDlWzRKDdY7vyDCKooipBYrNCfVJVFfPWVJuqeRdI9dNEoNFhFW4893X7VYAMsdMYW2GGqEFQosV86L/0UIsJzAUoO2KCp0itcl70WE1Y6wPoAVowYrNrCowQJYjWdCX7VYMYClQXM/4QfTDRVYFI2Gxsrh7clhvdfMt7QhdIoHsMKd0rXFogDLt2iUGqwPHgGwAoHVBUChifq6E5YIa/EiLF9gUYMFsCaY4FvaALBc8U//64caYYXelkPRaLivEGG91wxghTvPvLbIAVh29EUNFhHWxLnWZy1W6JVFpoTpXSV0lSjUHVFbREYNVr0PEGFZuvjWYoXmpABW3FhsiBFWn8C6ePFiXAET7g1gWcbzLW0IBVDolcU6f+qj2p3nYb1TOsajZUKB5WpvIqydO3cWFy5cSBgxcYcOsABWXI+aQW+xI6wYwKJodAaG517CcZH7qsUiworrzIsOLP4XYbO/EGFZ2vQFrC6lEFWTMSX8oMgiAIsarG4/YgDL0q2v0gaA1c05m7YaIrBCb8sBWN18AmABrG6eM8etFgFYbYCjBospodfp9eLFi+LKlStl27aoqEvEFFoKwZSw2WRDBFbMKneABbC8gKVGfdViASxvEzgbxgZWjEfLhALLt2iUGqxxd2BKWDk9fGuxQgEU2r7urI19AzR1WO9UnhZYrpqqqi1d7anBIsJy/mqbBr7ACi0eDW0PsGY3JRwasEz0xWNlJn2ACKuiiW9pQyiAQtsDrDyBRQ1We2wBsCr62KUNbZAJLQYNbQ+wANbp06eL1dVV79lBDg0BVo2Vr169Wv4nnTbIhAIotP0sgGWuhqbk6LET7jFyWKG35fjUYDEdrPdKgFWjiylviPlPVQFWHCwuOrAEs+Xl5ULPwNq1a1cc0RaoF4DVYExNDX/66adC08K6JbQWK7Q9EVa9YYYIrNAqd1fR6PHjxws9FpmFpHuQD6ytrRWbm5uDARb3E757FEzMJcaTGmIC6+OPPy7Onz8f8xAXqi8irBZzamp47dq14uXLl7WtQmqrYkRYAGsxgNVUNKpnX509e7bQOws5rM4+8NtvvxV6VZcQYGnb0PbV/QGsYQIrpMq9rmhUgPr8888LTQVZ2hUgwvL0kKdPnxY///zzWLQVWlsFsDzFbmk2xCnhNMASrE6dOlXs27dvenEy6AFgBRrZjrZCgRXanghr0jhDA5brNpvqEdjtFVERVYWdgAArTK+ytYm2/v7776B/IQ+wOohd2WQRgKXEOlFVN18AWN10K7e6detWcfv2be8eAJa3VI0NUwbWyspKcfjw4eLYsWPTC5FpDwBrSsPrCuL9+/eLe/fuFa9evWrtbdriUZLu8ZPus7jxWaA6evRoceTIkSm9jc0BVkQfMPD6/fffa3udFljqNPdHzMSOsKYFVtNtNoKUALV3797yxRJHAYAVR8eJXhRxbWxslNGXWQDW9GIPGViClK76adpHNDW9ret6AFj96Drq1URdv/zyS7F79+7GW318h0GEFbfSfdoIS1XuuvdPgBKoKPr09eRu7QBWN906baUc1/r6enm7T9MtP66OAdb8gaVISsuePXuKQ4cOMeVzOW3E9QAropihXXUBGMCaPbAEKL0EKPMKtTXt4ygAsOLoGKUXAzB1dufOncbEfZSdve8ktee6zyKHZcPJ/B1Tc/rqrgDA6q5d71sKYJo6mnf9TYQVP8KqRk9myte7gdlBsAIAK1iy+W0gcOmlCnvzt963trY6DyqXCEsQUnLczj/ps6Z4LOkoALDSsZVzpAZiBmDVz3UdLAqwmoBk8k9O8WiQhAIAKwkzTT9IU4VvR2QmWlPvitq0uKr1px+Jfw/VqZkiIr20KDKy//bvlZYpKwCwUrZez2OvwstAzQZbWxszPAMWG0B1MFJ78kc9GzXx7gFW4gZk+CiQkwIAKydrc6wokLgCACtxAzJ8FMhJAYCVk7U5VhRIXAGAlbgBGT4K5KQAwMrJ2hwrCiSuAMBK3IAMHwVyUgBg5WRtjhUFElcAYCVuQIaPAjkpALBysjbHigKJKwCwEjcgw0eBnBQAWDlZm2NFgcQVAFiJG5Dho0BOCgCsnKzNsaJA4goArMQNyPBRICcFAFZO1uZYUSBxBQBW4gZk+CiQkwIAKydrc6wokLgCACtxAzJ8FMhJAYCVk7U5VhRIXIH/AdKrsCn+IzK+AAAAAElFTkSuQmCC
;file_total_lines: 10219
;estimated_time(s): 401.25
;nozzle_temperature(°C): 205
;build_plate_temperature(°C): 50
;work_speed(mm/minute): 3600
;max_x(mm): 9.99999904632568
;max_y(mm): 9.999999046325684
;max_z(mm): 7.999999999999999
;min_x(mm): -9.99999904632568
;min_y(mm): -9.999999046325684
;min_z(mm): 0

;Header End

; G-code for 3dp engraving
; Generated by Snapmaker Luban 3.13.0
; Mon Jun 07 2021 15:7:0

M82 ;absolute extrusion mode
;Start GCode begin
M104 S205
M140 S50
G28 ;home
G90 ;absolute positioning
G1 X-10 Y-10 F3000
G1 Z0 F1800
M109 S205;Wait for Hotend Temperature
M190 S50;Wait for Bed Temperature
G92 E0
G1 E20 F200
G92 E0
;Start GCode end
G92 E0
G1 F1500 E-6.5
;LAYER_COUNT:40
;LAYER:0
M107
G0 F1800 X52.415 Y52.83 Z0.3
;TYPE:SKIRT
G1 F1500 E0
G1 F1080 X52.969 Y52.282 E0.03888
G1 X54.466 Y51.066 E0.1351
G1 X55.113 Y50.638 E0.1738
G1 X56.828 Y49.728 E0.27066
G1 X57.547 Y49.432 E0.30945
G1 X59.405 Y48.871 E0.40628
G1 X60.171 Y48.719 E0.44524
G1 X62.098 Y48.53 E0.54184
G1 X62.88 Y48.53 E0.58086
G1 X64.851 Y48.724 E0.67966
G1 X65.617 Y48.876 E0.71863
G1 X67.478 Y49.439 E0.81563
G1 X68.207 Y49.741 E0.85499
G1 X69.928 Y50.662 E0.95238
G1 X70.592 Y51.108 E0.99228
G1 X72.164 Y52.41 E1.09412
G1 X72.718 Y52.969 E1.13338
G1 X73.934 Y54.466 E1.2296
G1 X74.362 Y55.112 E1.26826
G1 X75.272 Y56.826 E1.36508
G1 X75.567 Y57.543 E1.40376
G1 X76.126 Y59.39 E1.50004
G1 X76.279 Y60.157 E1.53906
G1 X76.47 Y62.096 E1.63626
G1 X76.47 Y62.881 E1.67542
G1 X76.275 Y64.856 E1.77444
G1 X76.115 Y65.646 E1.81465
G1 X75.52 Y67.568 E1.91503
G1 X75.225 Y68.274 E1.9532
G1 X74.33 Y69.944 E2.04773
G1 X73.894 Y70.596 E2.08686
G1 X72.654 Y72.104 E2.18426
G1 X72.101 Y72.655 E2.22321
G1 X70.586 Y73.898 E2.32098
G1 X69.935 Y74.333 E2.36004
G1 X68.207 Y75.257 E2.4578
G1 X67.482 Y75.558 E2.49697
G1 X65.612 Y76.125 E2.59446
G1 X64.844 Y76.278 E2.63352
G1 X62.891 Y76.471 E2.73143
G1 X62.104 Y76.471 E2.7707
G1 X60.156 Y76.278 E2.86836
G1 X59.369 Y76.119 E2.90842
G1 X57.434 Y75.521 E3.00946
G1 X56.725 Y75.224 E3.04781
G1 X55.05 Y74.326 E3.14263
G1 X54.399 Y73.89 E3.18172
G1 X52.894 Y72.652 E3.27894
G1 X52.341 Y72.099 E3.31796
G1 X51.1 Y70.585 E3.41562
G1 X50.667 Y69.935 E3.45459
G1 X49.742 Y68.205 E3.55246
G1 X49.442 Y67.481 E3.59156
G1 X48.875 Y65.614 E3.68891
G1 X48.721 Y64.843 E3.72813
G1 X48.529 Y62.889 E3.82609
G1 X48.53 Y62.1 E3.86545
G1 X48.726 Y60.14 E3.96372
G1 X48.879 Y59.375 E4.00264
G1 X49.445 Y57.512 E4.09979
G1 X49.744 Y56.79 E4.13877
G1 X50.669 Y55.059 E4.23669
G1 X51.121 Y54.387 E4.27709
G1 X52.415 Y52.83 E4.3781
G0 F1800 X52.722 Y53.086
G1 F1080 X53.221 Y52.593 E4.41309
G1 X54.718 Y51.377 E4.50931
G1 X55.301 Y50.991 E4.5442
G1 X57.016 Y50.081 E4.64106
G1 X57.662 Y49.815 E4.67591
G1 X59.52 Y49.254 E4.77274
G1 X60.21 Y49.117 E4.80784
G1 X62.137 Y48.928 E4.90444
G1 X62.841 Y48.928 E4.93956
G1 X64.812 Y49.122 E5.03837
G1 X65.501 Y49.259 E5.07342
G1 X67.362 Y49.822 E5.17042
G1 X68.019 Y50.094 E5.20589
G1 X69.74 Y51.015 E5.30328
G1 X70.337 Y51.416 E5.33916
G1 X71.909 Y52.718 E5.44099
G1 X72.407 Y53.221 E5.4763
G1 X73.623 Y54.718 E5.57252
G1 X74.009 Y55.3 E5.60737
G1 X74.919 Y57.014 E5.70418
G1 X75.185 Y57.659 E5.73899
G1 X75.744 Y59.506 E5.83527
G1 X75.881 Y60.196 E5.87036
G1 X76.072 Y62.135 E5.96757
G1 X76.072 Y62.842 E6.00284
G1 X75.877 Y64.817 E6.10185
G1 X75.733 Y65.528 E6.13804
G1 X75.138 Y67.45 E6.23842
G1 X74.872 Y68.086 E6.27282
G1 X73.977 Y69.756 E6.36734
G1 X73.585 Y70.341 E6.40248
G1 X72.345 Y71.849 E6.49988
G1 X71.847 Y72.346 E6.53498
G1 X70.332 Y73.589 E6.63275
G1 X69.747 Y73.981 E6.66788
G1 X68.019 Y74.905 E6.76564
G1 X67.366 Y75.175 E6.8009
G1 X65.496 Y75.742 E6.89838
G1 X64.805 Y75.88 E6.93354
G1 X62.852 Y76.073 E7.03145
G1 X62.143 Y76.072 E7.06682
G1 X60.195 Y75.879 E7.16448
G1 X59.487 Y75.736 E7.20052
G1 X57.552 Y75.138 E7.30156
G1 X56.914 Y74.872 E7.33605
G1 X55.239 Y73.974 E7.43087
G1 X54.653 Y73.581 E7.46607
G1 X53.148 Y72.343 E7.56329
G1 X52.651 Y71.845 E7.59839
G1 X51.41 Y70.331 E7.69606
G1 X51.019 Y69.746 E7.73116
G1 X50.094 Y68.016 E7.82904
G1 X49.824 Y67.365 E7.8642
G1 X49.257 Y65.498 E7.96154
G1 X49.119 Y64.804 E7.99684
G1 X48.927 Y62.85 E8.0948
G1 X48.928 Y62.14 E8.13022
G1 X49.124 Y60.18 E8.22849
G1 X49.261 Y59.492 E8.26349
G1 X49.827 Y57.629 E8.36063
G1 X50.097 Y56.978 E8.39579
G1 X51.022 Y55.247 E8.49371
G1 X51.428 Y54.643 E8.53002
G1 X52.722 Y53.086 E8.63102
G0 F1800 X53.03 Y53.342
G1 F1080 X53.473 Y52.903 E8.66214
G1 X54.97 Y51.687 E8.75836
G1 X55.488 Y51.344 E8.78935
G1 X57.203 Y50.434 E8.88621
G1 X57.778 Y50.198 E8.91722
G1 X59.636 Y49.637 E9.01405
G1 X60.249 Y49.515 E9.04524
G1 X62.176 Y49.326 E9.14184
G1 X62.801 Y49.326 E9.17302
G1 X64.772 Y49.52 E9.27183
G1 X65.386 Y49.642 E9.30306
G1 X67.247 Y50.205 E9.40006
G1 X67.83 Y50.447 E9.43155
G1 X69.551 Y51.368 E9.52893
G1 X70.082 Y51.725 E9.56086
G1 X71.654 Y53.027 E9.66269
G1 X72.097 Y53.473 E9.69405
G1 X73.313 Y54.97 E9.79027
G1 X73.655 Y55.487 E9.8212
G1 X74.565 Y57.201 E9.91802
G1 X74.802 Y57.775 E9.949
G1 X75.361 Y59.622 E10.04527
G1 X75.483 Y60.235 E10.07645
G1 X75.674 Y62.174 E10.17366
G1 X75.674 Y62.802 E10.20499
G1 X75.479 Y64.777 E10.304
G1 X75.351 Y65.409 E10.33617
G1 X74.756 Y67.331 E10.43655
G1 X74.519 Y67.897 E10.46717
G1 X73.624 Y69.567 E10.56169
G1 X73.276 Y70.087 E10.59291
G1 X72.036 Y71.595 E10.69031
G1 X71.594 Y72.037 E10.7215
G1 X70.079 Y73.28 E10.81927
G1 X69.558 Y73.628 E10.85052
G1 X67.83 Y74.552 E10.94829
G1 X67.25 Y74.792 E10.9796
G1 X65.38 Y75.359 E11.07709
G1 X64.766 Y75.481 E11.10832
G1 X62.813 Y75.674 E11.20623
G1 X62.183 Y75.674 E11.23766
G1 X60.235 Y75.481 E11.33532
G1 X59.605 Y75.354 E11.36739
G1 X57.67 Y74.756 E11.46843
G1 X57.103 Y74.519 E11.49909
G1 X55.428 Y73.621 E11.59391
G1 X54.907 Y73.272 E11.62519
G1 X53.402 Y72.034 E11.72242
G1 X52.96 Y71.592 E11.7536
G1 X51.719 Y70.078 E11.85127
G1 X51.372 Y69.558 E11.88246
G1 X50.447 Y67.828 E11.98033
G1 X50.207 Y67.249 E12.0116
G1 X49.64 Y65.382 E12.10895
G1 X49.517 Y64.765 E12.14033
G1 X49.325 Y62.811 E12.23829
G1 X49.326 Y62.18 E12.26977
G1 X49.522 Y60.22 E12.36804
G1 X49.644 Y59.608 E12.39918
G1 X50.21 Y57.745 E12.49632
G1 X50.45 Y57.167 E12.52754
G1 X51.375 Y55.436 E12.62546
G1 X51.736 Y54.899 E12.65774
G1 X53.03 Y53.342 E12.75874
G1 F1500 E6.25874
;MESH:/home/kaan/.config/snapmaker-luban/Tmp/diodehousingv001_06524016.stl
G0 F1800 X54.877 Y55.055
G0 X55.869 Y55.869
G0 X61.458 Y57.712
G0 X61.478 Y57.809
;TYPE:WALL-INNER
G1 F1500 E12.75874
G1 F1080 X60.607 Y58.084 E12.80431
G1 X59.806 Y58.529 E12.85003
G1 X59.106 Y59.126 E12.89593
G1 X58.532 Y59.851 E12.94206
G1 X58.108 Y60.677 E12.98838
G1 X57.847 Y61.571 E13.03485
G1 X57.758 Y62.5 E13.08141
G1 X57.847 Y63.429 E13.12797
G1 X58.108 Y64.323 E13.17443
G1 X58.532 Y65.149 E13.22075
G1 X59.106 Y65.874 E13.26689
G1 X59.806 Y66.471 E13.31278
G1 X60.607 Y66.916 E13.3585
G1 X61.478 Y67.191 E13.40407
G1 X62.385 Y67.283 E13.44955
G1 X63.292 Y67.191 E13.49503
G1 X64.163 Y66.916 E13.5406
G1 X64.964 Y66.471 E13.58632
G1 X65.665 Y65.874 E13.63225
G1 X66.237 Y65.149 E13.67833
G1 X66.662 Y64.323 E13.72467
G1 X66.923 Y63.428 E13.77118
G1 X67.011 Y62.5 E13.81769
G1 X66.923 Y61.572 E13.86419
G1 X66.662 Y60.677 E13.91071
G1 X66.237 Y59.851 E13.95705
G1 X65.665 Y59.126 E14.00312
G1 X64.964 Y58.529 E14.04906
G1 X64.163 Y58.084 E14.09477
G1 X63.292 Y57.809 E14.14034
G1 X62.385 Y57.717 E14.18583
G1 X61.478 Y57.809 E14.23131
G0 F1800 X61.458 Y57.712
G0 X64.315 Y53.381
G0 X64.334 Y53.283
G1 F1080 X66.096 Y53.817 E14.32316
G1 X67.719 Y54.686 E14.41501
G1 X69.145 Y55.855 E14.507
G1 X70.314 Y57.281 E14.599
G1 X71.183 Y58.904 E14.69085
G1 X71.717 Y60.666 E14.7827
G1 X71.897 Y62.5 E14.87464
G1 X71.717 Y64.334 E14.96658
G1 X71.183 Y66.096 E15.05843
G1 X70.314 Y67.719 E15.15028
G1 X69.145 Y69.145 E15.24227
G1 X67.719 Y70.314 E15.33427
G1 X66.096 Y71.183 E15.42612
G1 X64.334 Y71.717 E15.51797
G1 X62.5 Y71.897 E15.60991
G1 X60.666 Y71.717 E15.70185
G1 X58.904 Y71.183 E15.7937
G1 X57.281 Y70.314 E15.88555
G1 X55.855 Y69.145 E15.97754
G1 X54.686 Y67.719 E16.06954
G1 X53.817 Y66.096 E16.16138
G1 X53.283 Y64.334 E16.25324
G1 X53.103 Y62.5 E16.34518
G1 X53.283 Y60.666 E16.43712
G1 X53.817 Y58.904 E16.52897
G1 X54.686 Y57.281 E16.62082
G1 X55.855 Y55.855 E16.71281
G1 X57.281 Y54.686 E16.80481
G1 X58.904 Y53.817 E16.89665
G1 X60.666 Y53.283 E16.98851
G1 X62.5 Y53.103 E17.08045
G1 X64.334 Y53.283 E17.17239
G0 F1800 X64.414 Y52.889
;TYPE:WALL-OUTER
G1 F1080 X66.251 Y53.446 E17.26815
G1 X67.941 Y54.35 E17.36377
G1 X69.429 Y55.571 E17.4598
G1 X70.65 Y57.059 E17.55583
G1 X71.554 Y58.749 E17.65145
G1 X72.111 Y60.586 E17.74722
G1 X72.299 Y62.5 E17.84317
G1 X72.111 Y64.414 E17.93912
G1 X71.554 Y66.251 E18.03489
G1 X70.65 Y67.941 E18.13051
G1 X69.429 Y69.429 E18.22654
G1 X67.941 Y70.65 E18.32257
G1 X66.251 Y71.554 E18.41819
G1 X64.414 Y72.111 E18.51396
G1 X62.5 Y72.299 E18.60991
G1 X60.586 Y72.111 E18.70586
G1 X58.749 Y71.554 E18.80162
G1 X57.059 Y70.65 E18.89724
G1 X55.571 Y69.429 E18.99327
G1 X54.35 Y67.941 E19.0893
G1 X53.446 Y66.251 E19.18492
G1 X52.889 Y64.414 E19.28069
G1 X52.701 Y62.5 E19.37664
G1 X52.889 Y60.586 E19.47259
G1 X53.446 Y58.749 E19.56836
G1 X54.35 Y57.059 E19.66398
G1 X55.571 Y55.571 E19.76001
G1 X57.059 Y54.35 E19.85604
G1 X58.749 Y53.446 E19.95166
G1 X60.586 Y52.889 E20.04743
G1 X62.5 Y52.701 E20.14338
G1 X64.414 Y52.889 E20.23932
G0 F1800 X64.605 Y52.947
G0 X64.459 Y53.424
G0 X61.409 Y57.726
G0 X61.559 Y58.203
G1 F1080 X60.766 Y58.453 E20.28081
G1 X60.035 Y58.859 E20.32252
G1 X59.395 Y59.405 E20.3645
G1 X58.87 Y60.069 E20.40673
G1 X58.481 Y60.826 E20.44919
G1 X58.242 Y61.647 E20.49185
G1 X58.16 Y62.5 E20.5346
G1 X58.242 Y63.353 E20.57735
G1 X58.481 Y64.174 E20.62001
G1 X58.87 Y64.931 E20.66247
G1 X59.395 Y65.595 E20.70471
G1 X60.035 Y66.141 E20.74668
G1 X60.766 Y66.547 E20.78839
G1 X61.559 Y66.797 E20.82988
G1 X62.385 Y66.881 E20.8713
G1 X63.211 Y66.797 E20.91272
G1 X64.004 Y66.547 E20.9542
G1 X64.735 Y66.141 E20.99592
G1 X65.375 Y65.595 E21.03789
G1 X65.899 Y64.931 E21.08009
G1 X66.289 Y64.174 E21.12257
G1 X66.528 Y63.353 E21.16523
G1 X66.609 Y62.5 E21.20798
G1 X66.528 Y61.647 E21.25073
G1 X66.289 Y60.826 E21.29339
G1 X65.899 Y60.069 E21.33587
G1 X65.375 Y59.405 E21.37807
G1 X64.735 Y58.859 E21.42004
G1 X64.004 Y58.453 E21.46176
G1 X63.211 Y58.203 E21.50324
