;Header Start

;FLAVOR:Marlin
;TIME:6666
;Filament used: 0m
;Layer height: 0.2


;header_type: 3dp
;thumbnail: data:image/png;base64,iVBORw0KGgoAAAANSUhEUgAAASwAAACWCAYAAABkW7XSAAAVIUlEQVR4Xu2dycsdRRfG63XAeQZnDZooQVQUESOiC0Gc8B9w2Ek2Gl25kASioCC4kYgbV4LTSgSDE4ILBXEICurCKQbnOc5THPLxtJz7nbfe7q6q7up763Q/DZfb997u6qrnnP71qfEu7dq1a7fjRgWoABUwoMASgWXASswiFaAClQIEFh2BClABMwoQWGZMxYxSASpAYNEHqAAVMKMAgWXGVMwoFaACBBZ9gApQATMKEFhmTMWMUgEqQGDRB6gAFTCjAIFlxlTMKBWgAgQWfYAKUAEzChBYZkzFjFIBKkBg0QeoABUwowCBZcZUzCgVoAIEFn2AClABMwoQWGZMxYxSASpAYNEHqAAVMKMAgWXGVMwoFaACBBZ9gApQATMKEFhmTMWMUgEqQGDRB6gAFTCjAIFlxlTMKBWgAgQWfYAKUAEzChBYZkzFjFIBKkBg0QeoABUwowCBZcZUzCgVoAIEFn2AClABMwoQWGZMxYxSASpAYNEHqAAVMKMAgWXGVMwoFaACBBZ9gApQATMKEFhmTMWMUgEqQGDRB6gAFTCjAIFlxlTMKBWgAgQWfYAKUAEzChBYZkzFjFIBKkBg0QeoABUwowCBZcZUzCgVoAIEFn2AClABMwoQWGZMxYxSASpAYNEHqAAVMKMAgWXGVMwoFaACBBZ9gApQATMKEFhmTMWMUgEqQGDRB6gAFTCjAIFlxlTMKBWgAgQWfYAKUAEzChBYZkzFjFIBKkBg0QeoABUwowCBZcZUzCgVoAIEFn2AClABMwoQWGZMxYxSASpAYNEHqAAVMKMAgWXGVMwoFaACBNYcfOCjjz5y8sLlsP/xxx9XV8a+3vzPfvZWrVo1+wr7J554YvX5oosuql5DbqG8dbm2Lk+X80PnaO1ffPHF2eFSlpgyNWmOxPCbfoXyw9/7KUBg9dNvxdm4AV544QWHm0P2my5x4IEHumOOOcYdcsgh1Wtpaal6l+3HH390u3fvdj/88IN799133S+//BLMLW6e+++/v7qJ6m5KDUsNzIMOOsi9/fbbK27o4AUHOMCHmP58+umnu59//nkGaoFG3fv69esrW4Q22OG4445zxx9/vNtjjz3cwQcfvMIGsMU///zj3n///VY7IK94cOBBct1111V24JZPAQIrn5bu9ddfdxdccEF0iieffHIFqD333HMGLEAL208//VS9sOFm+fzzz6PT5YHpCgDYgJZ+YABceGDg9e+//1YPDthk+/btURcACLdt20ZoRakVdxCBFadT1FHvvfeeu/fee91vv/3msA/4IBrAC5u8C4iiEuVBxSqgIzEADy9siJoBq6OOOspt2LDBnXrqqcWWwVrGCKzMFrvxxhvdXnvtVcEK1Qu8sAm8sP/ZZ5+5Tz/9dAYw7HMrXwEACi9EYtikGilRGL5DJCYvVCFvv/12d8QRR5RfOCM5JLAyG+qGG26ogPXrr79WbR14oTqHqAqgsrxJBKEjC9mXqqyUD8dKRCnf4cbGpiNM7PvHWdNIIIYyI7rCC9D6+++/3X333WetOEXnl8DKZB5pYL/77rsrSH3xxReZUp5PMro6A/ggepDv0K6jIYXffUD5n+tyLcDSANPfAV640QEwgTveoac1qEG7NWvWuLvuumvw3tv5eEgZVyGwethBIPXQQw9F9Ub1uFT2U9HGcvTRR8/aW9BDJtCR6qxcFNVaDaShgCWN23JdwEuAhnd0PqCXDg+DL7/8MrsmQyaI3sJrr73Wbdq0acjLjD5tAivRxJYhhaIecMABbvXq1e6ss86qIIQeSmx4XzSwNKCQJ/1Z2oXwPdqGEHEBXm+99VaiBRd/OOC1cePGatgDtzQFCKwEvR588EF35513rhjsmZDEwg898sgj3SWXXDIDlFVgIeICuF566SW3Y8eOhevaJQMEV7pqBFaEZoiqACoAawzbGWec4c4+++xlEZbfoym9myjvvKqEU4mwfB/CQNNnn312DK41eBkIrAiJ77jjjgpYY9ukWoi2LDSy6yEYJQILjfJov8Lrgw8+GJU5UD3EDAVu7QoQWAEPQXS1du3a0fuR7iWU8UYyGFKmDYkIQzW6y1QkGWyLiAtDQvDZWq9rF4f5/fffu5w2qXMIrAhzn3TSSSt6pdDLFjO3LyJ5M4f447D8oQ7ye12BAB1/CIMcN4axWH2NCH/65ptv+iYz+vMJrAgTX3/99e7hhx+OOJKHUIF0BQCra665xt1zzz3pJ0/sDAIrwuAYO/PJJ5+4N954o+pK9zeMbJ5ClSVCKh7SokBdVI72QzS6n3DCCQ5tpdzYhtWogL/8St1yLFi3ChOZd+7cWaUTGsVeNyWFTjg9BaR6jKpwk0/gewALG6rL559//rJlc/C9rLXl709P0f9KPNoIS+Aj6yHJ4m3+YnpDGp7wGlLd8tKGvSWKwvuQUbess4X3Cy+8sBJD4Db0Qo6LVN48sDSYZNE8vbrnIsWVawu4jj322Oorrm1VglX65UE/jGBXvYxQv5TznC3wEpjNY0XaPDkfWZVQYCSresasKNkmgXTdo8cL3fXSpa/P0QvpYb8vcHRvmrVJvfNwyhKvkTta1n7nTy5H+cXnUFWUxRz7QlGiMsxptAowExGWXna4z2hzzKOT5T/gMDLhV+bR6YGTVX15aWnZ5FuZnPv999+7rVu3DjKsoa7tA4M6rS9NUyKE/AhYoCR6a1vkzv/VV189W21Wj2vzfQ7XlRkAMp8S49WwZDYAFrv6aV3+ZUI23q3MayweWLnm7wFWF198sTv00EOreXTy8icAC6j0uyzQhicdegvfeeed3lEW8oOVKDFNxl9OpWlckj/OCefJzSVjoria6f9vTWgiegiM9Lsc6Ue5erwZ9mXBPqSH1WRzTKNBuueee6477bTTqgejhpZeoQJ5xJxJeZc5lPgOAMPD8/nnn6/WX+uzWVlNomhg5Z4SgwGgcBS0OUgYjqhKJgCL0eE8GhpYETTXAnxojMVa7meeeWYVvR122GGNfqaXVpZVSfGd3IRNUZfcqHpgp1wE59Z9X5eJRcAvJs9NZfC/r8u/pA8/wL68o/zyuW0ALAAB/3jzzTfdhx9+mCXKlgUApTlC1pKXvGlgwf74jChLpirlnPxd+rzGooG133779XloFHGu9BxhMTdEVVgtQSI2OF7b8rkxi+KhkP5a8Rpq0h4iN2/quvJNAJEb3BdZQyMFjrrdJmQ4fy11nRfdBumPzG8Dkb6mv9Cg/u27776brXQB+yDiwrzGr776atBewZAmuX6HRl9//XWu5LKnUzSwUM9//PHHsxd6qATlhkA7GaI4aTPTC9MBUrmBFQu2pnL7kYhfRaqLVPpEX00Rnv89dJLvYqPCNtu2gSgGWLAd/jlH2jxloUP9jnF6MrgYwxr6dtAM5at16cJ/161b55544ol5XjbpWkUDa8uWLVXYLTP00XZUQq+a7uGRCEqqmmhXkE3224CFKqFeGcG3XgyMYo5J8Yrc6aVcOwYcQ6fXBDZpM9LAkuYEvQSPv9IFfBbgkqWec/Q0d9XAP0/a6PCQRZsqmituuummXMlnT6doYGH+3muvvTb7BxqUXiYcyx874ObS7TspVQtdlcB+XRVCt3lIm4L+lxScpyHl/4MKfiewuvltbEQUm3pMem3H/PXXX1W7USqwJH8aZNLILm2luhovbahdq/F1fl3XdofOBPFd6Ym89NJL3eWXXx4r6dyPKxpYr7zyinvkkUeW/V2WP/QAijVFBG2RQsh56/4wQawTCyx9nG44FcjBSQDBvffeu9HwMdFOzDEpnpU7vZRrLzrCCgELYNGLHeoVW30w+cvw1AFLzvE1D9mgi2/rssm+Bhb2Aawrrriiq8kGP88MsMT4uYAlkU+TwinA0mBq2m8CFtq59tlnHwKrRoHQQyX17ohJr+2YP/74o2pkbwOWP6ZKgyUXsEIwaypDE7DEZwEs/K/mKaeckirt3I4vGlhQAfVpv5HTj6q6RFh9gNVWDQwByx8ESGA1+3oMYFLulJj02o4BrAAtAZY0tiMPEmk1Aast2qqrJbRBqUt05fu7+Kl+x0P1tttuc4cffniKrHM9tnhg4Z9zMfZFGjV9h2irEoZ+Czlw3RNJrNPUbpUKrH333dftv//+jLAMRFhjAZb4tYYV/BmDqgGskrfigQUB0ZWsu47lCeO/1wnd9WlUF4FpgKUCS0dWOgRH+xUGkzZtofA/BOUuzhdzzS7ppp4TeqAMkV7bNdHhg4Z3/fCUfd1Uof2ybh/59quHuiwh/bv4dN3DV/sh9kvvIax8fdeuXf/9f3ihm99TWBdhtd20XYwrUrS1YzUBC+fq4Qy6cRP7Ai7ZJ7CaHa80YGF0OewXC6y2NqsSgOX3EGKqEFY+LXkrHlgWegp1NVADS+/7oBJgwXExTYgR1koFSgMWhhmgnUdHVX5nkD8GS0oV6jFcRIRlrYfQRISlgZW7pzB0Q7RFWDGQCgFL0mibTxiqHoy1ShiyTZcoICbNtmMALNzk2g9jgZWrhzBk76b811UJ/Ydo6T2EJoCFTA7VUxhy4JzA0tVB7Sg55hPGQC31Bh8izZQ8hGyTklZTFb8ujbbrysRnH1hto9zlGqUDy0IPoRlg9ekpDN14bQ7aFVg6+oqZntN3AnSojF1u7iHSTMlHicDyJz7HTMvJDayubbJ+hCU+Kg9SCz2EZoAlPYXzHtowL2DJGl11N3QMOGKOSYFFqNqRmlaX40sDVuo8wlCblbaZb782e/YFlugqwJJo30IPoRlgLaqnsA1YfuO6jqqa9v2F2HAcvmubAB0Do5hjUqExRJopebAErNCgUZS7qTG+7uGQG1hN7Vfiw/jdQg+hGWCh4f3RRx9dNgk61xSd0I1RZ2y58VLHYnWZTxgDjphjUmDBCGulWhh/FZpH6A+5iRmD5WsdsmWXCCsELPjxZZddVvSkZ7FI8cMakNFShzZ0BZY/PQcj3THivWnr48SpoJo5xtJS11OznBd6kHS5SCjNtt99YMEm8tAMRVih6qEuSx9bj72H0EyEhYyW2FOYC1icT7gSPyG4pAIrJr22Y/78889q3fTc8whT2q9CkW9XYFnpITQHLO0s8tRqa7yMiRZCjhzb8K7brXT7lt9jKL0y8g7ocT5h+cBqmkeoIy0dSZU8yt1qD6EpYPXpKQyF2W3QigWW3wivoy9/CgSn54Tjo9CDJJzC8iNi0ms7BsBClNV3Wo5fPcwVYcX4sBwjwBI/XL16tduwYUOqpAs53kQbFpSJ6SnM3buC6w4BLD/K4nzC8iOsmInPTT2BuQaNdmlw1z7cBCwrQxpMRViL6ikksBbyIF3xoOibi74RVp95hIsE1ph6CM0BaxHLJecElh9ZSWgOh277V5hQlTbUGNvlZo+5Zpd0Y8+JAUxsWnWRct25bddsAtY8p+V0ibBigGVhDuGsPbr05WW0Y5XQU+g7dV1bldwgcmxoeg6O4wTo9DaneQIrZR5h2zAGHW3VPWhyN2s0AUselpZ6CE1FWMisD6xF9BS2AUv3CNbtS4SFsuT+f8LcEVHu9FLgEhsRpaQZE7G1HZMyj7ArsEKa54iw/B5CPCg3b96cIuVCjzXT6A6VhuopDDlzW7Ww61gsAqvd70M2Sb1rYtJrOqbuD1T9f8vpMso9Vw9hG+D9CMtyD6G5CKtPT2GXp5PcFEMBC+kDeCXOJww97VOBkXp8DGBS0oxJr+mYtonPJYxybyub/KbfdVuqpR5Cc8Dyewr9p1qo8bkrtNqAFaoG+u1ZdfMJEZbfeuut1Z/GYsO/XW/fvn12P8bAI+aYlBs8d3op1y6hSgibYHwSXth/7LHHqr+g96fjzAtYXXw3psHdyhxC8R9TVcJFzSnsAiyJnpqAJYP2cDPccsstzl8TC428O3furMAFgOEzXk1bbsDkTq9kYMEGiDQ0pPz8fvvtt+6BBx6ooKVHt9cBq2kYQ59Bo0MBy1IPobkICxm++eabV4w29iOrJuN2MXrd076uXUAcvK7XUEdhGlTr1q1zV111VdK9DGgBYgIwQA1Ayw2Y3OklFbJmwG7q+f7xWHMMGyImbBpQKWlv3brVPfnkk8vWdRf/E81i13VPacPq4rtj6yE0CaxFDG2IjbB0VNW0j6f4mjVr3JVXXrkiqkq5cfxjBWASmUnVUr+npG8NWDIsBO/ywh+C6s8p5W87Fj2GL7/8snvqqadmVcQSR7k3NbhLG5a1HkKTwNqyZUsVUfirj+obrLQIC0LjCX/eeec5RFWL+GddqU7qqiWiM2z6O9lfNLAkItIgQl7xWfST3xAtLWKDfgDX008/3bhAX0mj3K33EJoEFpwEI95RLdLQ0tXC3MDyq4V+xNU0eFTaRAAqRFVWN9125rejtbWr1ZUXI8ZXrVo1+0kPmG0bPFu6dvBLtLE+88wzjfBqa8MKPSD6VAnregihNdqvFvHw7GNLU43uuqBwjOeee272l0slAAvGR2SAdhIAyjKk+jjV1M8FvF599dVZh4nosag/TxVg4cEKHz3nnHOqFUYtbmaBBbHhGBgKsGPHjso5+lQLQ+N0/N91Iy6qJHAEadC16AjM83AKiJ/CP2XISkqDu34Y+7ls8lv9PXxVQIW12y1vpoHlC4/qybZt26qvm4YCxIbWUnWRRlukKT1L2CecLLv94vMunSPwU/FXvNcNX4n1Wb/joWtP6OLVac7BqIDVVMy2Nhh9jt/AW7LhmLfxK6A7StpKqx+qY1dlEsAauxFZPiowFQUIrKlYmuWkAiNQgMAagRFZBCowFQUIrKlYmuWkAiNQgMAagRFZBCowFQUIrKlYmuWkAiNQgMAagRFZBCowFQUIrKlYmuWkAiNQgMAagRFZBCowFQUIrKlYmuWkAiNQgMAagRFZBCowFQUIrKlYmuWkAiNQgMAagRFZBCowFQUIrKlYmuWkAiNQgMAagRFZBCowFQUIrKlYmuWkAiNQgMAagRFZBCowFQUIrKlYmuWkAiNQgMAagRFZBCowFQUIrKlYmuWkAiNQgMAagRFZBCowFQUIrKlYmuWkAiNQgMAagRFZBCowFQUIrKlYmuWkAiNQgMAagRFZBCowFQUIrKlYmuWkAiNQgMAagRFZBCowFQUIrKlYmuWkAiNQgMAagRFZBCowFQUIrKlYmuWkAiNQgMAagRFZBCowFQUIrKlYmuWkAiNQgMAagRFZBCowFQUIrKlYmuWkAiNQgMAagRFZBCowFQX+B6QuDoP7r18qAAAAAElFTkSuQmCC
;file_total_lines: 47861
;estimated_time(s): 1640.3100000000002
;nozzle_temperature(°C): 200
;build_plate_temperature(°C): 50
;work_speed(mm/minute): 3600
;max_x(mm): 19.999999999999996
;max_y(mm): 44.06372526066405
;max_z(mm): 8.024482727050788
;min_x(mm): -19.999999999999996
;min_y(mm): 4.06372526066405
;min_z(mm): 0

;Header End

; G-code for 3dp engraving
; Generated by Snapmaker Luban 3.13.0
; Mon Jun 07 2021 17:41:57

M82 ;absolute extrusion mode
;Start GCode begin
M104 S200
M140 S50
G28 ;home
G90 ;absolute positioning
G1 X-10 Y-10 F3000
G1 Z0 F1800
M109 S200;Wait for Hotend Temperature
M190 S50;Wait for Bed Temperature
G92 E0
G1 E20 F200
G92 E0
;Start GCode end
G92 E0
G1 F1500 E-6.5
;LAYER_COUNT:40
;LAYER:0
M107
G0 F1800 X42.572 Y64.536 Z0.3
;TYPE:SKIRT
G1 F1500 E0
G1 F1080 X42.852 Y64.367 E0.01632
G1 X43.981 Y63.751 E0.08048
G1 X44.469 Y63.53 E0.10721
G1 X44.795 Y63.428 E0.12425
G1 X45.87 Y63.147 E0.17968
G1 X46.397 Y63.05 E0.20642
G1 X46.68 Y63.031 E0.22057
G1 X47.834 Y62.999 E0.27816
G1 X48.381 Y63.026 E0.30549
G1 X51.068 Y63.362 E0.44059
G1 X56.527 Y63.857 E0.71405
G1 X61.985 Y64.043 E0.98651
G1 X67.428 Y63.919 E1.25814
G1 X72.92 Y63.484 E1.53299
G1 X77.023 Y63.002 E1.7391
G1 X77.559 Y62.979 E1.76586
G1 X77.829 Y62.998 E1.77937
G1 X79.007 Y63.125 E1.83848
G1 X79.534 Y63.222 E1.86521
G1 X79.836 Y63.315 E1.88098
G1 X80.938 Y63.71 E1.93938
G1 X81.428 Y63.928 E1.96614
G1 X81.715 Y64.1 E1.98283
G1 X82.74 Y64.781 E2.04423
G1 X83.164 Y65.111 E2.07103
G1 X83.393 Y65.338 E2.08712
G1 X84.172 Y66.182 E2.14442
G1 X84.506 Y66.602 E2.17119
G1 X84.667 Y66.863 E2.18649
G1 X85.244 Y67.892 E2.24535
G1 X85.471 Y68.378 E2.27211
G1 X85.572 Y68.688 E2.28837
G1 X85.901 Y69.87 E2.34959
G1 X86.006 Y70.396 E2.37635
G1 X86.032 Y70.753 E2.3942
G1 X86.06 Y71.981 E2.45549
G1 X86.034 Y72.5 E2.48141
G1 X85.545 Y76.5 E2.68246
G1 X85.127 Y81.986 E2.95695
G1 X85.021 Y87.411 E3.22765
G1 X85.224 Y92.885 E3.50094
G1 X85.733 Y98.312 E3.77288
G1 X86.061 Y101.054 E3.91066
G1 X86.082 Y101.641 E3.93996
G1 X86.055 Y102.252 E3.97048
G1 X85.967 Y102.903 E4.00325
G1 X85.699 Y104.063 E4.06265
G1 X85.539 Y104.575 E4.08941
G1 X85.413 Y104.859 E4.10491
G1 X84.898 Y105.892 E4.16249
G1 X84.623 Y106.353 E4.18928
G1 X84.42 Y106.616 E4.20585
G1 X83.597 Y107.585 E4.26928
G1 X83.22 Y107.967 E4.29605
G1 X82.957 Y108.176 E4.31281
G1 X82.059 Y108.823 E4.36803
G1 X81.602 Y109.103 E4.39477
G1 X81.305 Y109.239 E4.41107
G1 X80.091 Y109.73 E4.4764
G1 X79.58 Y109.894 E4.50318
G1 X79.215 Y109.962 E4.5217
G1 X78.032 Y110.119 E4.58124
G1 X77.496 Y110.149 E4.60802
G1 X77.153 Y110.127 E4.62517
G1 X72.65 Y109.617 E4.85126
G1 X67.183 Y109.195 E5.12482
G1 X61.74 Y109.083 E5.39643
G1 X56.285 Y109.28 E5.66876
G1 X50.767 Y109.794 E5.94524
G1 X48.017 Y110.124 E6.08343
G1 X47.482 Y110.148 E6.11015
G1 X47.207 Y110.13 E6.12389
G1 X45.984 Y110 E6.18525
G1 X45.457 Y109.904 E6.21198
G1 X45.13 Y109.802 E6.22907
G1 X44.002 Y109.39 E6.28898
G1 X43.513 Y109.169 E6.31575
G1 X43.228 Y108.996 E6.33239
G1 X42.23 Y108.325 E6.39238
G1 X41.809 Y107.993 E6.41913
G1 X41.588 Y107.772 E6.43473
G1 X40.822 Y106.938 E6.49122
G1 X40.489 Y106.517 E6.518
G1 X40.335 Y106.268 E6.53261
G1 X39.763 Y105.251 E6.59082
G1 X39.536 Y104.765 E6.61758
G1 X39.436 Y104.461 E6.63355
G1 X39.105 Y103.285 E6.6945
G1 X38.998 Y102.76 E6.72123
G1 X38.972 Y102.424 E6.73804
G1 X38.935 Y101.255 E6.79639
G1 X38.954 Y100.756 E6.82131
G1 X39.719 Y93.638 E7.17847
G1 X39.966 Y88.207 E7.4497
G1 X39.906 Y82.748 E7.72207
G1 X39.535 Y77.28 E7.9955
G1 X38.935 Y71.998 E8.26071
G1 X38.934 Y71.195 E8.30077
G1 X39.06 Y70.058 E8.35785
G1 X39.159 Y69.531 E8.3846
G1 X39.254 Y69.228 E8.40044
G1 X39.674 Y68.07 E8.4619
G1 X39.894 Y67.58 E8.48869
G1 X40.073 Y67.284 E8.50595
G1 X40.748 Y66.283 E8.56618
G1 X41.08 Y65.862 E8.59293
G1 X41.307 Y65.636 E8.60891
G1 X42.15 Y64.867 E8.66584
G1 X42.572 Y64.536 E8.6926
G0 F1800 X42.819 Y64.853
G1 F1080 X43.043 Y64.718 E8.70565
G1 X44.172 Y64.102 E8.76981
G1 X44.634 Y63.896 E8.79505
G1 X44.896 Y63.815 E8.80873
G1 X45.971 Y63.534 E8.86416
G1 X46.691 Y63.431 E8.90045
G1 X47.845 Y63.399 E8.95805
G1 X48.331 Y63.423 E8.98232
G1 X51.01 Y63.758 E9.11702
G1 X56.513 Y64.257 E9.39269
G1 X61.981 Y64.443 E9.66565
G1 X67.451 Y64.319 E9.93862
G1 X72.948 Y63.883 E10.21373
G1 X77.07 Y63.399 E10.42079
G1 X77.786 Y63.395 E10.45651
G1 X78.964 Y63.522 E10.51562
G1 X79.701 Y63.692 E10.55335
G1 X80.803 Y64.087 E10.61176
G1 X81.264 Y64.294 E10.63697
G1 X81.494 Y64.434 E10.6504
G1 X82.519 Y65.115 E10.7118
G1 X82.917 Y65.427 E10.73703
G1 X83.099 Y65.61 E10.7499
G1 X83.878 Y66.454 E10.80721
G1 X84.318 Y67.059 E10.84453
G1 X84.895 Y68.088 E10.90339
G1 X85.107 Y68.547 E10.92861
G1 X85.187 Y68.795 E10.94161
G1 X85.516 Y69.977 E11.00282
G1 X85.612 Y70.473 E11.02803
G1 X85.632 Y70.762 E11.04248
G1 X85.66 Y71.99 E11.10376
G1 X85.637 Y72.451 E11.12679
G1 X85.146 Y76.464 E11.32849
G1 X84.727 Y81.965 E11.60373
G1 X84.621 Y87.418 E11.87583
G1 X84.824 Y92.903 E12.14967
G1 X85.341 Y98.414 E12.42582
G1 X85.663 Y101.102 E12.56089
G1 X85.683 Y101.623 E12.5869
G1 X85.656 Y102.234 E12.61741
G1 X85.577 Y102.813 E12.64656
G1 X85.309 Y103.973 E12.70596
G1 X85.055 Y104.681 E12.74349
G1 X84.54 Y105.714 E12.80107
G1 X84.279 Y106.147 E12.8263
G1 X84.115 Y106.358 E12.83963
G1 X83.292 Y107.327 E12.90306
G1 X82.935 Y107.685 E12.92828
G1 X82.724 Y107.851 E12.94168
G1 X81.826 Y108.498 E12.99689
G1 X81.393 Y108.761 E13.02217
G1 X81.155 Y108.869 E13.03521
G1 X79.941 Y109.36 E13.10054
G1 X79.459 Y109.511 E13.12574
G1 X79.162 Y109.565 E13.1408
G1 X77.979 Y109.722 E13.20034
G1 X77.474 Y109.749 E13.22557
G1 X77.198 Y109.73 E13.23937
G1 X72.697 Y109.22 E13.46536
G1 X67.187 Y108.795 E13.74108
G1 X61.734 Y108.683 E14.01318
G1 X56.25 Y108.881 E14.28696
G1 X50.763 Y109.391 E14.56189
G1 X47.97 Y109.727 E14.70224
G1 X47.25 Y109.732 E14.73816
G1 X46.027 Y109.602 E14.79952
G1 X45.53 Y109.509 E14.82474
G1 X45.267 Y109.426 E14.8385
G1 X44.139 Y109.014 E14.89841
G1 X43.679 Y108.803 E14.92366
G1 X43.452 Y108.664 E14.93694
G1 X42.454 Y107.993 E14.99694
G1 X41.882 Y107.502 E15.03455
G1 X41.116 Y106.668 E15.09104
G1 X40.684 Y106.072 E15.12777
G1 X40.112 Y105.055 E15.18598
G1 X39.9 Y104.596 E15.21121
G1 X39.821 Y104.353 E15.22395
G1 X39.49 Y103.177 E15.2849
G1 X39.392 Y102.681 E15.31013
G1 X39.372 Y102.411 E15.32364
G1 X39.335 Y101.242 E15.38199
G1 X39.351 Y100.799 E15.4041
G1 X40.118 Y93.666 E15.76202
G1 X40.366 Y88.204 E16.0348
G1 X40.306 Y82.734 E16.30772
G1 X39.934 Y77.252 E16.58184
G1 X39.332 Y71.953 E16.84791
G1 X39.331 Y71.24 E16.88348
G1 X39.457 Y70.103 E16.94056
G1 X39.553 Y69.606 E16.96581
G1 X39.63 Y69.364 E16.97848
G1 X40.05 Y68.206 E17.03994
G1 X40.259 Y67.746 E17.06514
G1 X40.405 Y67.508 E17.07907
G1 X41.08 Y66.507 E17.13931
G1 X41.395 Y66.111 E17.16455
G1 X41.576 Y65.932 E17.17725
G1 X42.419 Y65.163 E17.23418
G1 X42.819 Y64.853 E17.25943
G1 F1500 E10.75943
;MESH:/home/kaan/.config/snapmaker-luban/Tmp/diodehousingv002_41536071.stl
G0 F1800 X44.242 Y66.935
G0 X45.031 Y67.948
G0 X45.149 Y71.065
G0 X45.246 Y71.085
;TYPE:WALL-INNER
G1 F1500 E17.25943
G1 F1080 X45.197 Y71.564 E17.28345
G1 X45.247 Y72.042 E17.30743
G1 X45.396 Y72.501 E17.3315
G1 X45.637 Y72.917 E17.35549
G1 X45.958 Y73.275 E17.37948
G1 X46.348 Y73.558 E17.40352
G1 X46.789 Y73.755 E17.42761
G1 X47.259 Y73.854 E17.45158
G1 X47.741 Y73.854 E17.47562
G1 X48.211 Y73.755 E17.49959
G1 X48.652 Y73.558 E17.52368
G1 X49.042 Y73.275 E17.54772
G1 X49.363 Y72.917 E17.57171
G1 X49.604 Y72.501 E17.5957
G1 X49.753 Y72.042 E17.61978
G1 X49.803 Y71.564 E17.64375
G1 X49.754 Y71.085 E17.66777
G1 X49.604 Y70.626 E17.69187
G1 X49.363 Y70.21 E17.71585
G1 X49.042 Y69.852 E17.73984
G1 X48.651 Y69.568 E17.76395
G1 X48.211 Y69.374 E17.78794
G1 X47.741 Y69.273 E17.81193
G1 X47.259 Y69.273 E17.83597
G1 X46.789 Y69.374 E17.85996
G1 X46.349 Y69.568 E17.88395
G1 X45.958 Y69.852 E17.90806
G1 X45.637 Y70.21 E17.93205
G1 X45.396 Y70.626 E17.95603
G1 X45.246 Y71.085 E17.98012
G0 F1800 X45.149 Y71.065
G0 X45.208 Y72.05
G0 X45.36 Y72.517
G0 X45.605 Y72.94
G0 X45.932 Y73.304
G0 X46.156 Y73.467
G0 X61.691 Y81.776
G0 X61.711 Y81.873
G1 F1080 X60.84 Y82.148 E18.02569
G1 X60.038 Y82.593 E18.07145
G1 X59.338 Y83.19 E18.11735
G1 X58.765 Y83.914 E18.16341
G1 X58.34 Y84.741 E18.2098
G1 X58.079 Y85.634 E18.25622
G1 X57.991 Y86.564 E18.30282
G1 X58.079 Y87.493 E18.34938
G1 X58.34 Y88.386 E18.39579
G1 X58.765 Y89.213 E18.44218
G1 X59.338 Y89.937 E18.48825
G1 X60.038 Y90.534 E18.53415
G1 X60.84 Y90.98 E18.57993
G1 X61.711 Y91.254 E18.62548
G1 X62.618 Y91.347 E18.67097
G1 X63.524 Y91.254 E18.71641
G1 X64.395 Y90.98 E18.76196
G1 X65.197 Y90.534 E18.80775
